src/assets/menu.svg

<svg width="20" height="12" viewBox="0 0 20 12" fill="#FFF" xmlns="http://www.w3.org/2000/svg">
<path d="M9 2L19 2C19.2652 2 19.5196 1.89464 19.7071 1.70711C19.8946 1.51957 20 1.26522 20 1C20 0.734784 19.8946 0.480429 19.7071 0.292892C19.5196 0.105356 19.2652 0 19 0L9 0C8.73478 0 8.48043 0.105356 8.29289 0.292892C8.10536 0.480429 8 0.734784 8 1C8 1.26522 8.10536 1.51957 8.29289 1.70711C8.48043 1.89464 8.73478 2 9 2ZM19 10L1 10C0.734784 10 0.480429 10.1054 0.292892 10.2929C0.105356 10.4804 0 10.7348 0 11C0 11.2652 0.105356 11.5196 0.292892 11.7071C0.480429 11.8946 0.734784 12 1 12L19 12C19.2652 12 19.5196 11.8946 19.7071 11.7071C19.8946 11.5196 20 11.2652 20 11C20 10.7348 19.8946 10.4804 19.7071 10.2929C19.5196 10.1054 19.2652 10 19 10V10ZM1 7L19 7C19.2652 7 19.5196 6.89464 19.7071 6.70711C19.8946 6.51957 20 6.26522 20 6C20 5.73478 19.8946 5.48043 19.7071 5.29289C19.5196 5.10536 19.2652 5 19 5L1 5C0.734784 5 0.480429 5.10536 0.292892 5.29289C0.105356 5.48043 0 5.73478 0 6C0 6.26522 0.105356 6.51957 0.292892 6.70711C0.480429 6.89464 0.734784 7 1 7Z" fill="#FFFFFF"/>
</svg>

<?xml version="1.0" encoding="UTF-8"?>
<svg id="Layer_1" xmlns="http://www.w3.org/2000/svg" version="1.1" viewBox="0 0 20 12">
  <!-- Generator: Adobe Illustrator 29.4.0, SVG Export Plug-In . SVG Version: 2.1.0 Build 152)  -->
  <path d="M9,2h10c.3,0,.5-.1.7-.3.2-.2.3-.4.3-.7s-.1-.5-.3-.7c-.2-.2-.4-.3-.7-.3h-10c-.3,0-.5.1-.7.3-.2.2-.3.4-.3.7s.1.5.3.7c.2.2.4.3.7.3ZM19,10H1c-.3,0-.5.1-.7.3-.2.2-.3.4-.3.7s.1.5.3.7c.2.2.4.3.7.3h18c.3,0,.5-.1.7-.3s.3-.4.3-.7-.1-.5-.3-.7-.4-.3-.7-.3h0ZM1,7h18c.3,0,.5-.1.7-.3.2-.2.3-.4.3-.7s-.1-.5-.3-.7c-.2-.2-.4-.3-.7-.3H1c-.3,0-.5.1-.7.3-.2.2-.3.4-.3.7s.1.5.3.7c.2.2.4.3.7.3Z"/>
</svg>
